svg/emoji_u24c2.svg

<svg enable-background="new 0 0 128 128" viewBox="0 0 128 128" xmlns="http://www.w3.org/2000/svg"><linearGradient id="c" x1="64" x2="64" y1="15" y2="113.55" gradientUnits="userSpaceOnUse"><stop stop-color="#F5F5F5" offset="0"/><stop stop-color="#F0F0F0" offset=".4422"/><stop stop-color="#E0E0E0" offset=".9963"/><stop stop-color="#E0E0E0" offset="1"/></linearGradient><circle cx="64" cy="64" r="56" fill="url(#c)"/><linearGradient id="b" x1="64" x2="64" y1="4.3143" y2="125.23" gradientUnits="userSpaceOnUse"><stop stop-color="#29B6F6" offset="0"/><stop stop-color="#169FE4" offset=".5369"/><stop stop-color="#0288D1" offset=".9954"/></linearGradient><path d="m64 16c26.47 0 48 21.53 48 48s-21.53 48-48 48-48-21.53-48-48 21.53-48 48-48m0-12c-33.14 0-60 26.86-60 60s26.86 60 60 60 60-26.86 60-60-26.86-60-60-60z" fill="url(#b)"/><g opacity=".2"><path d="m64 16c26.47 0 48 21.53 48 48s-21.53 48-48 48-48-21.53-48-48 21.53-48 48-48m0-3c-28.12 0-51 22.88-51 51s22.88 51 51 51 51-22.88 51-51-22.88-51-51-51z" fill="#424242"/></g><linearGradient id="a" x1="64" x2="64" y1="3.984" y2="128.05" gradientUnits="userSpaceOnUse"><stop stop-color="#29B6F6" offset="0"/><stop stop-color="#169FE4" offset=".5369"/><stop stop-color="#0288D1" offset=".9954"/></linearGradient><path d="m48.78 37.32 13.4 36.54c0.64 1.76 3.07 1.76 3.71 0l13.37-36.54c0.29-0.79 1.03-1.32 1.86-1.32h8.9c1.09 0 1.98 0.91 1.98 2.03v51.93c0 1.12-0.89 2.03-1.98 2.03h-5.48c-1.09 0-1.98-0.91-1.98-2.03v-16.42l0.47-12.38c0.09-2.3-3.03-2.95-3.83-0.81l-11.34 30.34c-0.29 0.79-1.03 1.31-1.85 1.31h-4.06c-0.82 0-1.56-0.52-1.85-1.31l-11.29-30.28c-0.8-2.15-3.92-1.49-3.83 0.81l0.47 12.32v16.43c0 1.12-0.89 2.03-1.98 2.03h-5.48c-1.1 0-1.99-0.91-1.99-2.03v-51.94c0-1.12 0.89-2.03 1.98-2.03h8.94c0.83 0 1.57 0.52 1.86 1.32z" fill="url(#a)"/><g opacity=".2"><path d="M64,7c31.43,0,57,25.57,57,57s-25.57,57-57,57S7,95.43,7,64S32.57,7,64,7 M64,4 C30.86,4,4,30.86,4,64s26.86,60,60,60s60-26.86,60-60S97.14,4,64,4L64,4z" fill="#424242"/></g><g opacity=".2"><path d="m89 39v50h-3.44v-15.4l0.47-12.32c0.05-1.4-0.44-2.72-1.38-3.69-0.94-0.98-2.26-1.53-3.63-1.53-2.08 0-3.89 1.28-4.63 3.26l-11.1 29.68h-2.62l-11.05-29.63c-0.74-1.98-2.56-3.26-4.63-3.26-1.37 0-2.69 0.56-3.63 1.53-0.94 0.98-1.43 2.29-1.38 3.7l0.47 12.26v15.4h-3.45v-50h7.2l13.16 35.89c0.73 2 2.57 3.28 4.67 3.28 2.11 0 3.94-1.29 4.67-3.29l13.14-35.88h7.16m1.02-3h-8.9c-0.83 0-1.56 0.53-1.86 1.32l-13.37 36.54c-0.32 0.88-1.09 1.32-1.86 1.32s-1.53-0.44-1.85-1.32l-13.4-36.54c-0.29-0.8-1.03-1.32-1.86-1.32h-8.94c-1.09 0-1.98 0.91-1.98 2.03v51.93c0 1.12 0.89 2.03 1.98 2.03h5.48c1.09 0 1.98-0.91 1.98-2.03v-16.42l-0.47-12.32c-0.05-1.33 0.98-2.12 2.01-2.12 0.74 0 1.49 0.41 1.82 1.31l11.3 30.28c0.3 0.79 1.03 1.31 1.85 1.31h4.06c0.82 0 1.56-0.52 1.85-1.31l11.33-30.34c0.34-0.9 1.08-1.31 1.82-1.31 1.03 0 2.06 0.78 2.01 2.12l-0.47 12.38v16.43c0 1.12 0.89 2.03 1.98 2.03h5.48c1.09 0 1.98-0.91 1.98-2.03v-51.94c0.01-1.12-0.88-2.03-1.97-2.03z" fill="#424242"/></g></svg>

<svg width="128" height="128" style="enable-background:new 0 0 128 128;" xmlns="http://www.w3.org/2000/svg" xmlns:xlink="http://www.w3.org/1999/xlink">
  <g>
    <linearGradient id="SVGID_1_" gradientUnits="userSpaceOnUse" x1="64" x2="64" y1="15" y2="113.5464">
      <stop offset="0" style="stop-color:#F5F5F5"/>
      <stop offset="0.4422" style="stop-color:#F0F0F0"/>
      <stop offset="0.9963" style="stop-color:#E0E0E0"/>
      <stop offset="1" style="stop-color:#E0E0E0"/>
    </linearGradient>
    <circle cx="64" cy="64" r="56" style="fill:url(#SVGID_1_);"/>
    <linearGradient id="SVGID_2_" gradientUnits="userSpaceOnUse" x1="64" x2="64" y1="4.3143" y2="125.2267">
      <stop offset="0" style="stop-color:#29B6F6"/>
      <stop offset="0.5369" style="stop-color:#169FE4"/>
      <stop offset="0.9954" style="stop-color:#0288D1"/>
    </linearGradient>
    <path d="M64,16c26.47,0,48,21.53,48,48s-21.53,48-48,48S16,90.47,16,64S37.53,16,64,16 M64,4 C30.86,4,4,30.86,4,64s26.86,60,60,60s60-26.86,60-60S97.14,4,64,4L64,4z" style="fill:url(#SVGID_2_);"/>
    <g style="opacity:0.2;">
      <path d="M64,16c26.47,0,48,21.53,48,48s-21.53,48-48,48S16,90.47,16,64S37.53,16,64,16 M64,13 c-28.12,0-51,22.88-51,51s22.88,51,51,51s51-22.88,51-51S92.12,13,64,13L64,13z" style="fill:#424242;"/>
    </g>
    <g>
      <linearGradient id="SVGID_3_" gradientUnits="userSpaceOnUse" x1="64" x2="64" y1="3.984" y2="128.0512">
        <stop offset="0" style="stop-color:#29B6F6"/>
        <stop offset="0.5369" style="stop-color:#169FE4"/>
        <stop offset="0.9954" style="stop-color:#0288D1"/>
      </linearGradient>
      <path d="M48.78,37.32l13.4,36.54c0.64,1.76,3.07,1.76,3.71,0l13.37-36.54 c0.29-0.79,1.03-1.32,1.86-1.32h8.9c1.09,0,1.98,0.91,1.98,2.03v51.93c0,1.12-0.89,2.03-1.98,2.03h-5.48 c-1.09,0-1.98-0.91-1.98-2.03V73.54l0.47-12.38c0.09-2.3-3.03-2.95-3.83-0.81L67.86,90.69C67.57,91.48,66.83,92,66.01,92h-4.06 c-0.82,0-1.56-0.52-1.85-1.31L48.81,60.41c-0.8-2.15-3.92-1.49-3.83,0.81l0.47,12.32v16.43c0,1.12-0.89,2.03-1.98,2.03h-5.48 C36.89,92,36,91.09,36,89.97V38.03c0-1.12,0.89-2.03,1.98-2.03h8.94C47.75,36,48.49,36.52,48.78,37.32z" style="fill:url(#SVGID_3_);"/>
    </g>
    <g style="opacity:0.2;">
      <path d="M64,7c31.43,0,57,25.57,57,57s-25.57,57-57,57S7,95.43,7,64S32.57,7,64,7 M64,4 C30.86,4,4,30.86,4,64s26.86,60,60,60s60-26.86,60-60S97.14,4,64,4L64,4z" style="fill:#424242;"/>
    </g>
    <g style="opacity:0.2;">
      <path d="M89,39v50h-3.44V73.6l0.47-12.32c0.05-1.4-0.44-2.72-1.38-3.69c-0.94-0.98-2.26-1.53-3.63-1.53 c-2.08,0-3.89,1.28-4.63,3.26L65.29,89h-2.62L51.62,59.37c-0.74-1.98-2.56-3.26-4.63-3.26c-1.37,0-2.69,0.56-3.63,1.53 c-0.94,0.98-1.43,2.29-1.38,3.7l0.47,12.26V89H39V39h7.2l13.16,35.89c0.73,2,2.57,3.28,4.67,3.28c2.11,0,3.94-1.29,4.67-3.29 L81.84,39H89 M90.02,36h-8.9c-0.83,0-1.56,0.53-1.86,1.32L65.89,73.86c-0.32,0.88-1.09,1.32-1.86,1.32 c-0.77,0-1.53-0.44-1.85-1.32l-13.4-36.54C48.49,36.52,47.75,36,46.92,36h-8.94C36.89,36,36,36.91,36,38.03v51.93 c0,1.12,0.89,2.03,1.98,2.03h5.48c1.09,0,1.98-0.91,1.98-2.03V73.54l-0.47-12.32c-0.05-1.33,0.98-2.12,2.01-2.12 c0.74,0,1.49,0.41,1.82,1.31L60.1,90.69C60.4,91.48,61.13,92,61.95,92h4.06c0.82,0,1.56-0.52,1.85-1.31l11.33-30.34 c0.34-0.9,1.08-1.31,1.82-1.31c1.03,0,2.06,0.78,2.01,2.12l-0.47,12.38v16.43c0,1.12,0.89,2.03,1.98,2.03h5.48 c1.09,0,1.98-0.91,1.98-2.03V38.03C92,36.91,91.11,36,90.02,36L90.02,36z" style="fill:#424242;"/>
    </g>
  </g>
</svg>
